X:1
T:Jesus Our Blessèd Redeemer
T:Jesus Our Blessèd Redeemer
T:Robert Lowry
T:W. H. McNamee, 1875
T:Public Domain Courtesy of the Cyber Hymnal™
T:Public Domain Courtesy of the Cyber Hymnal™
C:Robert Lowry
Z:Public Domain
Z:Courtesy of the Cyber Hymnal™
%%score ( 1 2 ) ( 3 4 )
L:1/8
Q:1/4=96
M:4/4
K:A
V:1 treble 
V:2 treble 
V:3 bass 
V:4 bass 
V:1
 [CE]2 | [CA][CA][CA][CA] [CA]2 [CE][CE] | [DF][FA] [FA]>[FB] [EA]4 | %3
w: 1.~We’re|march- ing in the ar- my with|shield and ban- ner bright;|
w: 2.~A|feast of love is Je- sus, a|ban- quet of de- light;|
w: 3.~O|jas- per walls of Zi- on, thou|ci- ty ev- er fair!|
 [Ac]2 [EA][Ec] [Ee]2 [Ec][CA] | [Ec]2 [EB]4 E2 | [EA][EA][EA][EA] [EA]2 EE | %6
w: Joy- ful- ly sing as we’re|go- ing To|Ca- naan’s hap- py ci- ty of|
w: Joy- ful- ly sing as we’re|go- ing; The|ci- ty of His dwell- ing is|
w: Joy- ful- ly sing as we’re|go- ing; Be-|yond the Jor- dan’s roll- ing thy|
 [DF][EG][FA][FB] [^Ec]3 [Ec] | [Fd]2 [Ac][GB] [EA]2 [EG][EB] | [EB]2 [EA]4 [GB]2 | %9
w: glo- ry and of light, Where|love from the foun- tain is|flow- ing; To|
w: bathed in glo- ry bright, Where|love from the foun- tain is|flow- ing; Be-|
w: beau- ty we shall share, Where|love from the foun- tain is|flow- ing; At|
 [GB]2 [GB][Ac] [GB]2 [EG][GB] | ([GB][FA])[FA][EG] [FA]3 [FA] | [FA]2 [GB][Ac] [GB]2 [EG][GB] | %12
w: Je- sus our Sav- ior glad|voic- * es we’ll raise, A|song of sal- va- tion, sweet|
w: fore Him we’ll wor- ship, up-|on * Him we’ll gaze, And|stand in the beau- ti- ful|
w: home with our Sav- ior, in|joy * and in praise, With|voic- es an- gel- ic, ho-|
 ([GB][FA])[EG][^DF] E3 E | [Ec]2 [DB][Ec] [CA]2 [CE]E | [Ed]2 [Ec][Ed] [EB]4 | %15
w: an- * thems of praise, To|Him who hath saved us, the|An- cient of Days,|
w: courts * of His praise, With|Him who hath saved us, the|An- cient of Days,|
w: san- * nas we’ll raise With|Him who hath saved us, the|An- cient of Days,|
 [Ee]2 [Fd][FB] [EA]2 [EG][EB] | [EB]2 [EA]4 |] %17
w: Je- sus our bless- èd Re-|deem- er.|
w: Je- sus our bless- èd Re-|deem- er.|
w: Je- sus our bless- èd Re-|deem- er.|
V:2
 x2 | x8 | x8 | x8 | x6 E2 | x6 EE | x8 | x8 | x8 | x8 | x8 | x8 | x4 E3 E | x7 E | x8 | x8 | x6 |] %17
V:3
 [A,,A,]2 | [A,,E,][A,,E,][A,,E,][A,,E,] [A,,E,]2 [A,,A,][A,,A,] | %2
 [D,A,][D,D] [D,D]>[D,D] [A,,C]4 | [A,E]2 [A,C]A, [A,C]2 A,A, | [E,A,]2 [E,G,]4 [E,G,]2 | %5
 [C,A,][A,,C][C,C][E,C] [A,C]2 [C,A,][C,A,] | [D,A,][D,B,][D,A,][D,F,] [C,G,]3 [C,G,] | %7
 [B,,B,]2 [C,E][D,D] [E,C]2 [E,B,][E,D] | [A,,D]2 [A,,C]4 [E,E]2 | %9
 [E,E]2 [E,E][E,E] [E,E]2 [E,B,][E,B,] | [B,,B,]2 [B,,B,][B,,B,] [B,,B,]3 [B,,B,] | %11
 [B,,B,]2 [B,,B,][B,,B,] [E,B,]2 [E,B,][E,E] | (EB,)[B,,B,][B,,A,] [E,G,]3 [E,G,] | %13
 [A,,A,]2 [E,G,][E,G,] [A,,A,]2 [A,,A,][C,A,] | [E,B,]2 [E,A,][E,B,] [E,G,]4 | %15
 [C,A,]2 [D,A,][D,D] [E,C]2 [E,B,][E,D] | [A,,D]2 [A,,C]4 |] %17
V:4
 x2 | x8 | x8 | x3 A, x A,A, x | x8 | x8 | x8 | x8 | x8 | x8 | x8 | x8 | B,,2 x6 | x8 | x8 | x8 | %16
 x6 |] %17

